X: 04045
T: JON'S HORNPIPE
C: Bob McQuillen 30 March'80
B: Bob's Note Book 04 #45
R: hornpipe, reel
Z: 2020 John Chambers <jc:trillian.mit.edu>
M: C
L: 1/8
K: D
ag \
| fdef dBAG | F2D2 D2ag | fgaf dfef | d2B2 B2AG |
| FDEF GBAG | FAde dAde | fdef gecd | e2d2 d2  :|
|: FG \
| AFdB AFDE | F2D2 D2fg | abag fdef | d2B2 B2FG |
| ABAG FAde | fgdf dAfg | afaf geag | f2d2 d2  :|
%%begintext align
%% This tune is for Jon Bicknell of Francestown,
%% N.H. He's a great boy -- once at the
%% Fox Hollow Festival he served me fried eggs,
%% bacon, toast, and coffee, IN BED!! I hope
%% this will pay him back! -- Best wishes to
%% you, Jonny - Mac
%%endtext

%%sep 1 1 500

%%sep 1 1 500

